svgs/sharp-regular/mailbox-flag-up.svg

<svg xmlns="http://www.w3.org/2000/svg" viewBox="0 0 576 512"><!--! Font Awesome Pro 6.6.0 by @fontawesome - https://fontawesome.com License - https://fontawesome.com/license (Commercial License) Copyright 2024 Fonticons, Inc. --><path d="M352 224l0-24 0-112 0-32 0-24 24 0 64 0 24 0 0 24 0 32 0 24-24 0-40 0 0 88 0 24-48 0zM144 112c-53 0-96 43-96 96l0 192 192 0 0-192c0-53-43-96-96-96zm107.3 0c22.8 25.5 36.7 59.1 36.7 96l0 192 240 0 0-192c0-28.4-12.4-54-32-71.6L496 88l0-9c47.4 23.6 80 72.5 80 129l0 192 0 48-48 0-240 0-48 0L48 448 0 448l0-48L0 208C0 128.5 64.5 64 144 64l176 0 0 24 0 24-68.7 0zM104 192l80 0 24 0 0 48-24 0-80 0-24 0 0-48 24 0z"/></svg>

<svg xmlns="http://www.w3.org/2000/svg" viewBox="0 0 576 512"><!--! Font Awesome Pro 6.4.2 by @fontawesome - https://fontawesome.com License - https://fontawesome.com/license (Commercial License) Copyright 2023 Fonticons, Inc. --><path d="M352 224V200 88 56 32h24 64 24V56 88v24l-24 0H400v88 24H352zM144 112c-53 0-96 43-96 96V400H240V208c0-53-43-96-96-96zm107.3 0c22.8 25.5 36.7 59.1 36.7 96V400H528V208c0-28.4-12.4-54-32-71.6V88 79c47.4 23.6 80 72.5 80 129V400v48H528 288 240 48 0V400 208C0 128.5 64.5 64 144 64l176 0V88v24H251.3zM104 192h80 24v48H184 104 80V192h24z"/></svg>
